X: 37097
T: Silver Vale, The
R: jig
M: 6/8
K: Dmajor
|:{c}dAF AGF|dAF AGF|~A,3, GFG|~A,3 GFE|
DFA DGB|Adc d2 e|fed cBA|1 GFE D3:|2 GFE D2g||
|:~f3 aga|fdc d2f|ece g2f|efd cde|
~f3 gfg|a^ga ba=g|fed cBA|1 GFE D2g:|2 GFE D3||

